X:1
T:Leighton, LM
T:Arranged from William Leighton, circa 1614
T:Leighton, LM
T:Public Domain
C:Arranged from William Leighton, circa 1614
Z:Public Domain
%%score ( 1 2 ) ( 3 4 )
L:1/8
M:3/4
K:G
V:1 treble 
V:2 treble 
V:3 bass 
V:4 bass 
V:1
 G2 | [FA]4 [GB]2 | E3 F [GB]2 | A3 G [FA]2 | [GB]4 [GB]2 | A3 B [G^c]2 | [Fd]4 [EA]2 | %7
 F2 z2 ^c2 x2 | [Fd]6 | [FA]2 [FB]2 [Fc]2 | B3 A G2 | d3 c [GB]2 x2 | [FA]4 [Gd]2 | [Gc]4 [GB]2 | %14
 [FA]4 G2 | E2 z2 F2 x2 | [DG]4 |] %17
V:2
 G2 | x6 | c4 x2 | G4 x2 | x6 | A4 x2 | x6 | d4 E4 | x6 | x6 | G4 x2 | A4 x4 | x6 | x6 | x4 G2 | %15
 G4 D4 | x4 |] %17
V:3
 [G,B,]2 | [D,D]4 [G,D]2 | [A,C]4 [G,D]2 | [D,D]4 [D,D]2 | [G,D]4 [G,D]2 | [F,D]4 [E,G,]2 | %6
 [D,A,]4 [^C,A,]2 | [D,A,]2 [A,,A,]4 x2 | [D,A,]6 | [D,D]2 [D,D]2 [A,C]2 | D3 C [G,B,]2 | %11
 A,2 z2 G,2 x2 | [D,D]4 [B,,D]2 | [C,E]4 [G,,D]2 | D3 C [E,B,]2 | [C,C]2 [D,A,]4 x2 | [G,,B,]4 |] %17
V:4
 x2 | x6 | x6 | x6 | x6 | x6 | x6 | x8 | x6 | x6 | G,4 x2 | F,4 D4 | x6 | x6 | D,4 x2 | x8 | x4 |] %17

